X:1
T:Title
%%score { ( 1 3 ) | ( 2 4 ) }
L:1/8
Q:1/4=90
M:4/4
K:Ab
V:1 treble nm="Grand Piano"
V:3 treble 
V:2 bass 
V:4 bass 
V:1
 [CE]3 [DF] [B,G]2 A2 | [DB]2 [CA]2 [Ec]4 | [Ge]2 d[Ec] [DB]2 [B,G]2 | [_CF]4 [=CE]4 | %4
w: George~S.~Schuler * * *||||
 [CE]3 [DF] [B,G]2 A2 | [DB]2 [F_c]2 =c2- [Bc]2 | [=Ac]2 cc [_A=d]2 [Ad]2 | %7
w: |||
 [Ge]2 [A=d]2 [EB_d]4[Q:1/4=89][Q:1/4=87][Q:1/4=86][Q:1/4=84][Q:1/4=83][Q:1/4=82][Q:1/4=80][Q:1/4=79][Q:1/4=77][Q:1/4=76][Q:1/4=75][Q:1/4=73][Q:1/4=72][Q:1/4=70][Q:1/4=69] | %8
w: |
[Q:1/4=96] [E,CE]>[CA] [B,G]>[CA] [DB]2 [CA]2 | [DF]>[FB] [F=A]>[FB] c2 B2 | G3 A c2 B2 | %11
w: |||
 [CA]3 [DB] [Fd]2 [Ec]2 | [CE]>[CA] [B,G]>[CA] [DB]2 [A,CA]2 | %13
w: ||
[M:5/4] [A,DF]>[DFB] [CF=A]>[DFB] [DFd]3 [_Af]3 |[M:4/4] [Ae]2 [Ac]>A [Ae]2 [Ge]2 | [Aa]8 |] %16
w: |||
V:2
 A,,E,A,E, A,,2 C2 | A,,E,A,E, A,,2 A,2 | A,,E,FF, G,2 E,2 | G,,D,G,F, E,A,G,F, | %4
 A,,E,A,E, A,,2 C2 | D,F,A,D, C,G, C2 | z2[K:treble] =AA[K:bass] [B,,B,]4 | B,4 z4 | %8
 A,,>[A,,E,] [A,,E,]>[A,,E,] [A,,E,]2 [A,,A,]2 | z4 =A,2 z2 | [E,DE]3 [E,CE] [E,A,E]2 [E,G,D]2 | %11
 [A,,A,]3 [A,,A,] [A,,A,]2 [A,,A,]2 | [A,,E,]>[A,,E,] [A,,E,]>[A,,E,] [A,,E,]2 A,,2 | %13
[M:5/4] D,>D, E,>D, B,,3 [D,B,]3 |[M:4/4] [E,C]2 [E,E]>[E,C] [E,C]2 [E,D]2 | [A,,A,C]8 |] %16
V:3
 x8 | x8 | x8 | x8 | x8 | z4 =E2 z2 | x8 | x8 | x8 | z4 F4 | x8 | x8 | x8 |[M:5/4] x10 | %14
[M:4/4] x8 | x8 |] %16
V:4
 x8 | x8 | x8 | x8 | x8 | x8 | [F,C]4[K:treble][K:bass] z4 | E,2 F,2 G,2 E,2 | x8 | %9
 [D,A,]>[D,D] [E,C]>[D,D] D,2- [D,B,]2 | x8 | x8 | x8 |[M:5/4] x10 |[M:4/4] x8 | x8 |] %16

